!! 00008] TT[TB
!! Eigene Aufnahme  +++ BAND 8 +++
!!!OTL: Xiao hua ma
!!!ARE: Neimeng (Naehe Jilin)
!! Ethnic Group: Menggu,     (gesungen)
!! Transkription
!!!SCT: C0177A
!!!YEM: Copyright 1995, estate of Helmut Schaffrath.
**kern
*ICvox
*Ivox
!! Irregular meter.
*MX
*k[b--e-a-d-g-c-f-]
*d-:
=1
{4.f-
8g-
8a-
4cc-
2.dd-}
{8dd-
8ee-
2ee-
8aa-
=2
4.dd-
8cc-
4a-
2g-
8r}
{8g-
16g-
16g-
8g-
8a-
4cc-
2.dd-
16gg-
=3
8dd-
8cc-
8r}
{4.c-
8d-
8e-
4.a-
8g-
8e-
2d-
8r}
{8e-
4e-
4a-
4c-
16d-
=4
4.g-
8a-
=5
8dd-
8cc-
8a-
8a-
2g-}
{4.g-
8a-
8cc-
4dd-
2.dd-
=6
8dd-
4ee-
2.ee-
16aa-
=7
4dd-
8c-
8r}
=8
{12e-
12e-
12e-
4.e-
8a-
4.dd-
16cc-
=9
16a-
8.cc-
2.a-}
==
!! Der Grundton in der Transkription ist der Einfachheit halber E.
!!    Die Aehnlichkeit zur vorgefundenen Notation kann man nur noch
!!    ahnen. Keins der zahlreichen Tremoli wurde notiert. Die Tonlaengen
!!    wurden hier nur ungefaehr (!) ausgezaehlt. Der Klang dieser
!!    Transkription (Synthi etc.) kann nur enttaeuschen.
!!!ONB: ESAC (Essen Associative Code) Database: CHINA
!!!AMT: irregular
!!!AIN: vox
!!!EED: Helmut Schaffrath
!!!EEV: 1.0
*-
